!!!COM: Palestrina, Giovanni Perluigi da
!!!OPR: Missa In festis Apostolorum (II)
!!!OMD: Gloria
!!!OTL: Qui tollis
**kern	**kern	**kern	**kern	**kern
*Ibass	*Itenor	*Itenor	*Icalto	*Icant
!Bassus	!Tenor 2	!Tenor 1	!Altus	!Cantus
*clefF4	*clefGv2	*clefGv2	*clefG2	*clefG2
*k[]	*k[]	*k[]	*k[]	*k[]
*D:dor	*D:dor	*D:dor	*D:dor	*D:dor
*M4/2	*M4/2	*M4/2	*M4/2	*M4/2
=87	=87	=87	=87	=87
0r	0r	1A	0r	0r
.	.	1B	.	.
=88	=88	=88	=88	=88
0r	0r	2.c	1e	1r
.	.	4B-	.	.
.	.	2A	1f	1a
.	.	2d	.	.
=89	=89	=89	=89	=89
0r	0r	1G	2.g	1b
.	.	.	4f	.
.	.	2.A	2e	[1cc
.	.	.	[2f	.
.	.	4G	.	.
=90	=90	=90	=90	=90
0r	0r	4F	4f]	1cc]
.	.	4G	4e	.
.	.	4A	4c	.
.	.	4B	4d	.
.	.	1c	4e	2.cc
.	.	.	4f	.
.	.	.	[2g	.
.	.	.	.	4b-
=91	=91	=91	=91	=91
0r	0r	2d	4g]	2a
.	.	.	4f	.
.	.	2B-	1f	2b-
.	.	1c	.	1g
.	.	.	2e	.
=92	=92	=92	=92	=92
1D	0r	2r	2d	2f
.	.	2d	2f	1a
1E	.	2c	2.e	.
.	.	2B	.	2g
.	.	.	4d	.
=93	=93	=93	=93	=93
2.F	1A	2A	2c	2.a
.	.	2c	2A	.
4E	.	.	.	4g
2D	1B	1d	2r	2f#
2G	.	.	2d	[2g
=94	=94	=94	=94	=94
1C	0c	2c	1e	2g]
.	.	2G	.	2cc
1F	.	2.A	2f	2.cc
.	.	.	[2f	.
.	.	4G	.	4b
=95	=95	=95	=95	=95
2F	2.c	2F	4f]	2a
.	.	.	4c	.
2C	.	2E	2e	2.g
.	4B-	.	.	.
2D	2A	1F	2d	.
.	.	.	.	4f
2BB-	2B-	.	2d	[2f
=96	=96	=96	=96	=96
1C	1G	1r	1c	2f]
.	.	.	.	2e
1D	1F	2r	1A	1f
.	.	[2A	.	.
=97	=97	=97	=97	=97
2.AA	1A	2A]	1c	2r
.	.	2.E	.	1e
4BB	.	.	.	.
1C	1G	.	1e	.
.	.	4D	.	.
.	.	4E	.	[2g
.	.	4F	.	.
=98	=98	=98	=98	=98
1GG	1B-	2G	1d	2g]
.	.	2G	.	2g
1D	[1A	4F	1f	1a
.	.	4D	.	.
.	.	[2d	.	.
=99	=99	=99	=99	=99
1AA	0A]	2d]	0e	0a
.	.	2c#	.	.
2r	.	2r	.	.
[2A	.	[2c#	.	.
=100	=100	=100	=100	=100
2A]	0r	2c#]	1.e	1r
4G#	.	4B	.	.
4F#	.	4A	.	.
2G#	.	2B	.	2r
2A	.	2c#	2e	[2a
=101	=101	=101	=101	=101
2.D	2r	2.d	1.f	2a]
.	1d	.	.	2a
4E	.	8c	.	.
.	.	8B	.	.
4F	.	[1A	.	1a
4G	.	.	.	.
[2A	4c#	.	4e	.
.	4B	.	4d	.
=102	=102	=102	=102	=102
2A]	2c#	1A]	2e	2r
2D	2d	.	2f	1dd
1r	1G	1B	2g	.
.	.	.	2g	4cc
.	.	.	.	4b
=103	=103	=103	=103	=103
2r	1A	0r	2e	2cc
2D	.	.	1f	2dd
1C	[1c	.	.	1g
.	.	.	2e	.
=104	=104	=104	=104	=104
2F	2c]	0r	1f	1a
2D	1d	.	.	.
1A	.	.	2.e	1cc
.	[2c	.	.	.
.	.	.	4f#	.
=105	=105	=105	=105	=105
2.G	2c]	2r	1g	1.dd
.	1B-	2G	.	.
4F	.	.	.	.
4D	.	1A	2f	.
4E	.	.	.	.
2F	[2A	.	4c	[2cc
.	.	.	4d	.
=106	=106	=106	=106	=106
1E	2A]	2.B	1e	2cc]
.	2G#	.	.	2.b
.	.	4B	.	.
1AA	1A	1c	1c	.
.	.	.	.	4a
.	.	.	.	2a
=107	=107	=107	=107	=107
0E	2B	2B	[0e	2g#
.	2c	2.e	.	1a
.	1B	.	.	.
.	.	4d	.	.
.	.	2B	.	2g#
=108	=108	=108	=108	=108
[0AA	[0A	[0c#	1e_	[0a
.	.	.	1e_	.
=109	=109	=109	=109	=109
0AA]	0A]	0c#]	0e]	0a]
*-	*-	*-	*-	*-
!!!CDT: 1525/^1526/-1594/2/2
!!!OCY: Italia
!!!AGN: Mass (Paraphrase)
!!!AST: renaissance, vocal
!!!ASW: Gregorian Mass
!!!PWK: Masses, Book Mantuan II
!!!RNB: Cadence finals: A
!!!YOR: Le Opere Complete, v. 19, p. 1
!!!YOO: Rome, Italy: Fratelli Scalera
!!!END: 1992//
!!!EED: John Miller
!!!YEC: Copyright 2000, John Miller
!!!YEN: United States of America
!!!YEM: Rights to all derivative electronic formats reserved.
!!!YEM: Refer to licensing agreement for further details.
!!!YEM: This file must be accompanied by the licensing agreement.
!!!YEM: A copy of the licensing agreement may be found at http://www.music-cog.ohio-state.edu/HumdrumDatabases/Palestrina/license.txt
!!!EMD: converted to Humdrum by Bret Aarden
